X: 222
T:Money in both pockets
M:C|
C:?
R:reel
Z:Lesl
K:D
e4 f{g}fe|:dA~A2 dAFA|dAaf g2fe|dA~A2 dAFA|GFEF GAB2|
dA~A2 dAFA|dAaf g2fe|dA~A2 dAFA|GFEF GABc||
d2df edcA|(3Bcd ef gefe|d2df edcA|GFEF GABc|
d2df edcA|(3Bcd ef g2ef|aaea aged|1 (3Bcd ef g2fe:|2 (3Bcd ef gefe|d8||

